X:1
T:Along the Path of Life
T:Along the Path of Life
T:Asa Hull
T:Birdie Bell, 1884
T:Public Domain Courtesy of the Cyber Hymnal™
C:Asa Hull
Z:Public Domain
Z:Courtesy of the Cyber Hymnal™
%%score ( 1 2 ) 3
L:1/8
Q:1/4=105
M:3/4
K:F
V:1 treble 
V:2 treble 
V:3 bass 
V:1
 [CF]3 C [CF][EG] | [FA][GB] [Ac]2 [FA]2 | [EG]3 C [CF][FA] | [EG]6 | [CF]3 C [CF][EG] | %5
w: 1.~“Pil- grim, whi- ther|jour- ney you A-|long the path of|life?|What’s the goal you|
w: 2.~“Pil- grim, why not|halt and rest A-|long the path of|life?|Quick- ly on your|
w: 3.~“Pil- grim, why look|you so glad A-|long the path of|life?”|“Near- ing home, should|
 [FA][GB] [Ac]2 [FA]2 | [EG]3 C [CG][CA] | !fermata![CF]4 [FA][GB] | [Ac]3 [Af] [ce][Bd] | %9
w: have in view A-|long the path of|life?” “Far be-|yond our vi- sion,|
w: way you’ve pressed A-|long the path of|life.” “Nay, but|through His pre- cious|
w: I be sad A-|long the path of|life? Where yon|crys- tal tow- ers|
 [Ac]4 [EG][FA] | [EB]3 [EB] [Ec][EB] | [FA]6 | [CF]3 C [CF][EG] | [FA][GB] [Ac]2 [FA]2 | %14
w: friend, Is my|jour- ney’s bless- èd|end;|Hea- ven- ward my|foot- steps wend A-|
w: grace Soon I’ll|end this earth- ly|race;|I have no a-|bid- ing place A-|
w: shine I shall|see my King di-|vine,|And e- ter- nal|bliss be mine Be-|
 [EG]3 C [CG][CA] | [CF]6 |] %16
w: long the path of|life.”|
w: long the path of|life.”|
w: yond this path of|life.”|
V:2
 x3 C x2 | x6 | x3 C x2 | x6 | x3 C x2 | x6 | x3 C x2 | x6 | x6 | x6 | x6 | x6 | x3 C x2 | x6 | %14
 x3 C x2 | x6 |] %16
V:3
 [F,A,]3 [F,A,] [F,A,][C,C] | [F,C][F,C] [F,C]2 [F,C]2 | [C,C]3 [B,,C] [A,,C][F,,C] | [C,C]6 | %4
 [F,A,]3 [F,A,] [F,A,][C,C] | [F,C][F,C] [F,C]2 [F,C]2 | [C,B,]3 [C,B,] [C,B,][C,C] | %7
 !fermata![F,A,]4 [F,C][F,C] | [F,C]3 [F,C] [F,C][F,C] | [F,C]4 [B,C][A,C] | %10
 [G,C]3 [G,C] [C,C][C,C] | [F,C]6 | [F,A,]3 [F,A,] [F,A,][C,C] | [F,C][F,C] [F,C]2 [F,C]2 | %14
 [C,B,]3 [C,B,] [C,B,][C,C] | [F,A,]6 |] %16

